X:1
T:Title
%%score { ( 1 3 4 ) | ( 2 5 6 ) }
L:1/8
M:4/4
K:Eb
V:1 treble nm="Grand Piano"
V:3 treble 
V:4 treble 
V:2 bass 
V:5 bass 
V:6 bass 
V:1
 z4 z2[Q:1/4=100] [GB]>[FA] | G>G G>A B>G F>E |[M:3/4] [CA]>[CA] [CA]>[CA] [Ec]2 | %3
[M:1/4] [EAc]>[EAc] |[M:4/4] [EGB]3 [Ge] [Ge]2 [EG]2 | [DF]6 [DB]>[DA] |[M:3/4] G>G G>A B>G | %7
[M:1/4] F>E |[M:4/4] [CA]>[CA] [CA]>[CA] [Ec]2 [EAc]>[EAc] | [EGB]3 [EGc] [B,EG]2 [A,DF]2 | %10
[M:3/4] [G,E]6 |[M:1/4] e>d |[M:4/4] c6 z2 | B6 z2 | [EGB]3 [G,E] [=A,CD]2 [A,CE]2 |[M:3/4] [DF]6 | %16
[M:1/4] G>A |[M:4/4] B6 z2 |[M:9/8] e6- e z z |[M:4/4] [EGB]3 [EGc] [B,EG]2 [A,DF]2 | %20
[M:3/4] [G,E]6 |] %21
V:2
 z4 z2 [E,B,]>[E,B,] | [E,B,E]>[E,B,E] [E,B,E]>[E,A,E] [E,G,E]>[E,B,E] [E,A,B,]>[E,G,_D] | %2
[M:3/4] [A,,A,]>[A,,A,] [A,,A,]>[A,,A,] [A,,A,]2 |[M:1/4] A,,>A,, | %4
[M:4/4] E,3 [E,B,] [E,B,]2 [E,B,]2 | [B,,B,]6 [B,,F,]>[B,,B,] | %6
[M:3/4] [E,B,E]>[E,B,E] [E,B,E]>[E,A,E] [E,G,E]>[E,B,E] |[M:1/4] [E,A,B,]>[E,G,_D] | %8
[M:4/4] [A,,A,]>[A,,A,] [A,,A,]>[A,,A,] [A,,A,]2 A,,>A,, | B,,3 B,, B,,2 B,,2 |[M:3/4] E,6 | %11
[M:1/4][K:treble] G>B |[M:4/4] A6 z2 | G6[K:bass] z2 | E,3 E, F,2 F,2 | %15
[M:3/4] B,,>B,, B,,>B,, B,,2 |[M:1/4] E>E |[M:4/4] E6 z2 |[M:9/8] E6- E z z | %19
[M:4/4] B,,3 B,, B,,2 B,,2 |[M:3/4] E,6 |] %21
V:3
 x8 | x8 |[M:3/4] x6 |[M:1/4] x2 |[M:4/4] x8 | x8 |[M:3/4] x6 |[M:1/4] x2 |[M:4/4] x8 | x8 | %10
[M:3/4] x6 |[M:1/4] x2 |[M:4/4] z2 E>E z z/ e/ d>c | z z/ E/ E>E E2 [EGB]>[EAc] | x8 | %15
[M:3/4] B,>B, B,>B, B,2 |[M:1/4] x2 |[M:4/4] z2 G,>G, G,2 G>E | %18
[M:9/8] z2 C- C/C/ C2- C[C_Gd]>[EGc] |[M:4/4] x8 |[M:3/4] x6 |] %21
V:4
 x8 | x8 |[M:3/4] x6 |[M:1/4] x2 |[M:4/4] x8 | x8 |[M:3/4] x6 |[M:1/4] x2 |[M:4/4] x8 | x8 | %10
[M:3/4] x6 |[M:1/4] x2 |[M:4/4] z4 E2 z2 | x8 | x8 |[M:3/4] x6 |[M:1/4] x2 |[M:4/4] x8 | %18
[M:9/8] x9 |[M:4/4] x8 |[M:3/4] x6 |] %21
V:5
 x8 | x8 |[M:3/4] x6 |[M:1/4] x2 |[M:4/4] x8 | x8 |[M:3/4] x6 |[M:1/4] x2 |[M:4/4] x8 | x8 | %10
[M:3/4] x6 |[M:1/4][K:treble] x2 |[M:4/4] z2 A,>A, z z/ c/ B>A | z z/[K:bass] E,/ E,>E, E,2 E,>E, | %14
 x8 |[M:3/4] x6 |[M:1/4] x2 |[M:4/4] z2 E,>E, E,2 E2 |[M:9/8] z2 A,,- A,,/A,,/ A,,2- A,,=A,,>A,, | %19
[M:4/4] x8 |[M:3/4] x6 |] %21
V:6
 x8 | x8 |[M:3/4] x6 |[M:1/4] x2 |[M:4/4] x8 | x8 |[M:3/4] x6 |[M:1/4] x2 |[M:4/4] x8 | x8 | %10
[M:3/4] x6 |[M:1/4][K:treble] x2 |[M:4/4] z4 A,2 z2 | x3/2[K:bass] x13/2 | x8 |[M:3/4] x6 | %16
[M:1/4] x2 |[M:4/4] x8 |[M:9/8] x9 |[M:4/4] x8 |[M:3/4] x6 |] %21

